X:1
T:It’s Just Like Him
T:It’s Just Like Him
T:W. L. Stone
T:W. L. Stone, 1901
T:Public Domain Courtesy of the Cyber Hymnal™
T:Public Domain Courtesy of the Cyber Hymnal™
C:W. L. Stone
Z:Public Domain
Z:Courtesy of the Cyber Hymnal™
%%score ( 1 2 ) ( 3 4 )
L:1/8
Q:1/4=97
M:4/4
K:D
V:1 treble 
V:2 treble 
V:3 bass 
V:4 bass 
V:1
 [DF][EG] | [FA]>[FA] [FA][GB] [FA][Ad][Gc][GB] | [FA]6 [FA][FA] | %3
w: 1.~Oh, I|love to read of Je- sus and His|love, How He|
w: 2.~Oh, I|love to read of Je- sus as He|went Ev- ery-|
w: 3.~Oh, I|love to read of Je- sus on the|tree, For it|
w: 4.~Oh, my|dear and pre- cious Sav- ior, at Thy|feet Here I|
 [GB][GB][GB][GB] [^Ge][Gd][Gc][Gd] | [Ge]6 [GA][GA] | [Fd][Fd][Fd][Fd] [Ec]2 [E^A][EA] | %6
w: left His Fa- ther’s man- sion far a-|bove, How He|came on earth to live, How He|
w: where, to do His Fa- ther’s will in-|tent; How He|gave the blind their sight, How He|
w: shows how great the love that died for|me; And the|blood that from His side Flowed, when|
w: give my- self and all I have com-|plete; I will|serve Thee all my days With a|
 [DB][DB][DB][DB] [DA]2 D[DE] | [DF][EG][FA][GB] [FA][DF][CF][CE] | D6 z ||"^Refrain" [Fd] | %10
w: came His life to give, Oh, I|love to read of Je- sus and His|love.||
w: gave the wronged ones right, How He|swift de- liv- erance to the cap- tive|sent.|“It’s|
w: on the cross He died, Paid my|debt and ev- er- more doth make me|free.||
w: heart all filled with praise, And I’ll|thank Thee face to face when we shall|meet.||
 [Gc]2 [EG]2 [Gc]3 [GB] | [FB][FA] [FA]>[DF] [FA]3 [FB] | [FA][EG] [EG]>[DF] [EG]3 [GB] | %13
w: |||
w: just like Him” to|take my sins a- way, To|make me glad and free, To|
w: |||
w: |||
 [GB][FA] [FA]>[DF] [FA]3 [Fd] | [Gc]2 [EG]2 [Gc]3 [GB] | [GB][FA] [FA]>[DF] [FA]3 [FA] | %16
w: |||
w: keep me day by day; “It’s|just like Him” to|give His life for me, That|
w: |||
w: |||
 [GB][Ac][Ad][Ae] [Af] [Fd]2 [GB] | [FA][DF][CF][CE] D2 |] %18
w: ||
w: I might go to Hea- ven and|ev- er with Him be.|
w: ||
w: ||
V:2
 x2 | x8 | x8 | x8 | x8 | x8 | x6 D x | x8 | D6 x || x | x8 | x8 | x8 | x8 | x8 | x8 | x8 | %17
 x4 D2 |] %18
V:3
 [D,A,][D,A,] | [D,D]>[D,D] [D,D][D,D] [D,D][F,D][G,D][G,D] | [D,D]6 [D,D][D,D] | %3
 [G,D][G,D][G,D][G,D] [E,D][E,B,][E,E][E,D] | [A,C]6 [A,C][A,C] | %5
 [D,A,][D,A,][D,A,][D,A,] [F,^A,]2 [F,C][F,C] | [G,B,][G,B,]G,G, [D,F,]2 [D,F,][D,G,] | %7
 [D,A,][D,A,][D,D][D,D] [D,D][D,A,][A,,A,][A,,G,] | [D,F,]6 z || [D,A,] | %10
 [E,A,]2 A,2 [A,,A,]3 [A,,A,] | [D,A,][D,A,] [D,A,]>[D,A,] [D,A,]3 [D,A,] | %12
 [A,,A,][A,,A,] [A,,A,]>[A,,A,] [A,,A,]3 [A,,A,] | [D,A,][D,A,] [D,A,]>[D,A,] [D,A,]3 [D,A,] | %14
 [E,A,]2 A,2 [A,,A,]3 [A,,A,] | [D,A,][D,A,] [D,A,]>[D,A,] [D,A,]3 [D,D] | %16
 [G,D][G,E][F,D][E,C] [D,D] [D,D]2 [G,D] | [A,D]A,[A,,A,][A,,G,] [D,F,]2 |] %18
V:4
 x2 | x8 | x8 | x8 | x8 | x8 | x2 G,G, x4 | x8 | x7 || x | x2 A,2 x4 | x8 | x8 | x8 | x2 A,2 x4 | %15
 x8 | x8 | x A, x4 |] %18

